images/like.svg

<svg width="44" height="64" viewBox="0 0 44 64" fill="none" xmlns="http://www.w3.org/2000/svg">
<path d="M21.9 41C21.6 41 21.3 40.9 21.1 40.6C15.7 34.5 14.4 33.1 14.1 32.7C13.4 31.8 13 30.6 13 29.4C13 26.4 15.4 24 18.5 24C19.8 24 21 24.5 22 25.3C23 24.5 24.3 24 25.5 24C28.5 24 31 26.4 31 29.4C31 30.7 30.5 31.9 29.7 32.8L22.7 40.7C22.5 40.9 22.3 41 21.9 41ZM15.9 31.5C16.2 31.9 19.4 35.5 22 38.4L28.2 31.4C28.7 30.9 28.9 30.2 28.9 29.4C28.9 27.6 27.4 26.1 25.6 26.1C24.6 26.1 23.6 26.6 22.9 27.4C22.6 27.7 22.3 27.8 22 27.8C21.7 27.8 21.4 27.6 21.2 27.4C20.5 26.6 19.5 26.1 18.5 26.1C16.7 26.1 15.2 27.6 15.2 29.4C15.1 30.3 15.5 31 15.9 31.5C15.8 31.5 15.8 31.5 15.9 31.5Z" fill="black"/>
<rect x="20" y="11" width="20" height="20" rx="10" fill="#7DB54F"/>
<path d="M25.1308 24.26H26.5308V19.42L26.6308 18.83L26.2308 19.3L25.1308 20.09L24.7508 19.58L26.9508 17.88H27.3108V24.26H28.6808V25H25.1308V24.26ZM33.96 19.59C33.96 19.9433 33.8933 20.3067 33.76 20.68C33.6333 21.0467 33.4633 21.4167 33.25 21.79C33.0433 22.1633 32.81 22.53 32.55 22.89C32.29 23.2433 32.03 23.58 31.77 23.9L31.28 24.33V24.37L31.92 24.26H34.1V25H30.12V24.71C30.2667 24.5567 30.4433 24.3667 30.65 24.14C30.8567 23.9133 31.07 23.6633 31.29 23.39C31.5167 23.11 31.7367 22.8167 31.95 22.51C32.17 22.1967 32.3667 21.88 32.54 21.56C32.72 21.24 32.8633 20.9233 32.97 20.61C33.0767 20.2967 33.13 20 33.13 19.72C33.13 19.3933 33.0367 19.1233 32.85 18.91C32.6633 18.69 32.38 18.58 32 18.58C31.7467 18.58 31.5 18.6333 31.26 18.74C31.02 18.84 30.8133 18.9567 30.64 19.09L30.31 18.52C30.5433 18.32 30.82 18.1633 31.14 18.05C31.46 17.9367 31.8033 17.88 32.17 17.88C32.4567 17.88 32.71 17.9233 32.93 18.01C33.15 18.09 33.3367 18.2067 33.49 18.36C33.6433 18.5133 33.76 18.6967 33.84 18.91C33.92 19.1167 33.96 19.3433 33.96 19.59Z" fill="white"/>
</svg>

<svg width="44" height="64" fill="none" xmlns="http://www.w3.org/2000/svg"><path d="M21.9 41a.9.9 0 0 1-.8-.4c-5.4-6.1-6.7-7.5-7-7.9a5.4 5.4 0 0 1 4.4-8.7c1.3 0 2.5.5 3.5 1.3a5.46 5.46 0 0 1 9 4.1c0 1.3-.5 2.5-1.3 3.4l-7 7.9c-.2.2-.4.3-.8.3Zm-6-9.5c.3.4 3.5 4 6.1 6.9l6.2-7c.5-.5.7-1.2.7-2 0-1.8-1.5-3.3-3.3-3.3-1 0-2 .5-2.7 1.3-.3.3-.6.4-.9.4-.3 0-.6-.2-.8-.4-.7-.8-1.7-1.3-2.7-1.3-1.8 0-3.3 1.5-3.3 3.3-.1.9.3 1.6.7 2.1-.1 0-.1 0 0 0Z" fill="#000"/><rect x="20" y="11" width="20" height="20" rx="10" fill="#7DB54F"/><path d="M25.13 24.26h1.4v-4.84l.1-.59-.4.47-1.1.79-.38-.51 2.2-1.7h.36v6.38h1.37V25h-3.55v-.74Zm8.83-4.67c0 .35-.07.72-.2 1.09a10.88 10.88 0 0 1-1.21 2.21c-.26.35-.52.69-.78 1.01l-.49.43v.04l.64-.11h2.18V25h-3.98v-.29a33.15 33.15 0 0 0 1.17-1.32 15.09 15.09 0 0 0 1.25-1.83c.18-.32.32-.64.43-.95.1-.31.16-.61.16-.89 0-.33-.1-.6-.28-.81-.19-.22-.47-.33-.85-.33-.25 0-.5.05-.74.16-.24.1-.45.22-.62.35l-.33-.57c.23-.2.51-.36.83-.47.32-.11.66-.17 1.03-.17.29 0 .54.04.76.13a1.5 1.5 0 0 1 .91.9c.08.2.12.43.12.68Z" fill="#fff"/></svg>
